build/images/header/right-vector-md.svg

<svg width="260" height="74" viewBox="0 0 260 74" fill="none" xmlns="http://www.w3.org/2000/svg">
<g clip-path="url(#clip0_525_1618)">
<path d="M68.7353 67.4273H66.0991C65.4812 67.4258 64.8691 67.5366 64.2979 67.7533C63.7268 67.97 63.2079 68.2883 62.771 68.69L57.5591 73.4809H60.3336C61.3819 73.4811 62.3889 73.1051 63.1401 72.433L68.7353 67.4273ZM75.9315 67.4273H73.2953C72.6774 67.4256 72.0652 67.5364 71.4941 67.7531C70.9229 67.9698 70.404 68.2882 69.9672 68.69L64.7539 73.4809H67.5283C68.5767 73.4813 69.5837 73.1052 70.3349 72.433L75.9315 67.4273ZM83.1277 67.4273H80.4915C79.8736 67.4256 79.2614 67.5364 78.6903 67.7531C78.1191 67.9698 77.6002 68.2882 77.1634 68.69L71.9515 73.4809H74.7253C75.7736 73.4813 76.7806 73.1052 77.5318 72.433L83.1277 67.4273ZM90.3239 67.4273H87.6877C87.0698 67.4257 86.4576 67.5364 85.8865 67.7531C85.3153 67.9699 84.7964 68.2882 84.3596 68.69L79.1442 73.4809H81.9179C82.9662 73.4813 83.9733 73.1052 84.7244 72.433L90.3239 67.4273ZM97.5201 67.4273H94.8839C94.268 67.4272 93.6582 67.5386 93.0892 67.7553C92.5202 67.972 92.0033 68.2896 91.5679 68.69L86.356 73.4809H89.1305C90.1786 73.4813 91.1854 73.1053 91.9363 72.433L97.5201 67.4273ZM104.716 67.4273H102.08C101.464 67.4272 100.854 67.5386 100.285 67.7553C99.7164 67.972 99.1995 68.2896 98.7641 68.69L93.5522 73.4809H96.3267C97.375 73.4811 98.382 73.1051 99.1332 72.433L104.716 67.4273ZM111.913 67.4273H109.276C108.66 67.4272 108.051 67.5387 107.482 67.7554C106.913 67.972 106.396 68.2896 105.96 68.69L100.748 73.4809H103.523C104.571 73.4811 105.578 73.1051 106.329 72.433L111.913 67.4273ZM119.109 67.4273H116.472C115.857 67.4273 115.247 67.5388 114.678 67.7554C114.109 67.9721 113.592 68.2897 113.157 68.69L107.945 73.4809H110.719C111.767 73.4811 112.774 73.1051 113.526 72.433L119.109 67.4273ZM126.305 67.4273H123.669C123.053 67.4272 122.443 67.5387 121.874 67.7554C121.306 67.972 120.789 68.2896 120.353 68.69L115.118 73.4809H117.892C118.941 73.4813 119.948 73.1052 120.699 72.433L126.305 67.4273ZM133.501 67.4273H130.865C130.249 67.4272 129.639 67.5386 129.07 67.7553C128.501 67.972 127.984 68.2896 127.549 68.69L122.336 73.4809H125.111C126.159 73.4813 127.166 73.1052 127.917 72.433L133.501 67.4273ZM140.697 67.4273H138.061C137.445 67.4272 136.835 67.5386 136.266 67.7553C135.697 67.972 135.181 68.2896 134.745 68.69L129.533 73.4809H132.307C133.355 73.4813 134.362 73.1052 135.113 72.433L140.697 67.4273ZM147.894 67.4273H145.257C144.641 67.4272 144.032 67.5386 143.463 67.7553C142.894 67.972 142.377 68.2896 141.941 68.69L136.729 73.4809H139.504C140.552 73.4813 141.559 73.1053 142.31 72.433L147.894 67.4273ZM155.09 67.4273H152.453C151.838 67.4272 151.228 67.5387 150.659 67.7554C150.09 67.972 149.573 68.2896 149.138 68.69L143.926 73.4809H146.7C147.748 73.4811 148.755 73.1051 149.507 72.433L155.09 67.4273Z" fill="white"/>
</g>
<path d="M258.608 61.3735V60.2804L257.781 60.9953L246.777 70.5082L245.761 71.3864H247.104H258.108H258.608V70.8864V61.3735Z" fill="white" stroke="white"/>
<ellipse cx="186.577" cy="2.99894" rx="2.50104" ry="2.16202" fill="white"/>
<path d="M156.564 70.8866H237.598L258.607 52.7256V2.99902H188.078" stroke="white"/>
<defs>
<clipPath id="clip0_525_1618">
<rect width="155.065" height="6.05367" fill="white" transform="translate(0 67.4272)"/>
</clipPath>
</defs>
</svg>

<svg width="260" height="74" fill="none" xmlns="http://www.w3.org/2000/svg"><g clip-path="url(#clip0_525_1618)"><path d="M68.735 67.427H66.1a5.05 5.05 0 00-1.801.326 4.736 4.736 0 00-1.527.937l-5.212 4.79h2.775a4.214 4.214 0 002.806-1.047l5.595-5.006zm7.197 0h-2.637a5.045 5.045 0 00-1.8.326 4.733 4.733 0 00-1.528.937l-5.213 4.79h2.774a4.213 4.213 0 002.807-1.047l5.597-5.006zm7.196 0h-2.636a5.045 5.045 0 00-1.802.326 4.733 4.733 0 00-1.527.937l-5.212 4.79h2.774a4.213 4.213 0 002.807-1.047l5.596-5.006zm7.196 0h-2.636a5.047 5.047 0 00-1.802.326 4.735 4.735 0 00-1.526.937l-5.216 4.79h2.774a4.212 4.212 0 002.806-1.047l5.6-5.006zm7.196 0h-2.636c-.616 0-1.226.112-1.795.328a4.735 4.735 0 00-1.521.935l-5.212 4.79h2.775a4.21 4.21 0 002.805-1.047l5.584-5.006zm7.196 0h-2.636c-.616 0-1.226.112-1.795.328a4.737 4.737 0 00-1.52.935l-5.213 4.79h2.775a4.214 4.214 0 002.806-1.047l5.583-5.006zm7.197 0h-2.637a5.06 5.06 0 00-1.794.328 4.742 4.742 0 00-1.522.935l-5.212 4.79h2.775a4.213 4.213 0 002.806-1.047l5.584-5.006zm7.196 0h-2.637a5.05 5.05 0 00-1.794.328 4.73 4.73 0 00-1.521.935l-5.212 4.79h2.774a4.218 4.218 0 002.807-1.047l5.583-5.006zm7.196 0h-2.636c-.616 0-1.226.112-1.795.328a4.749 4.749 0 00-1.521.935l-5.235 4.79h2.774a4.212 4.212 0 002.807-1.047l5.606-5.006zm7.196 0h-2.636c-.616 0-1.226.112-1.795.328a4.73 4.73 0 00-1.521.935l-5.213 4.79h2.775a4.212 4.212 0 002.806-1.047l5.584-5.006zm7.196 0h-2.636c-.616 0-1.226.112-1.795.328a4.74 4.74 0 00-1.521.935l-5.212 4.79h2.774a4.212 4.212 0 002.806-1.047l5.584-5.006zm7.197 0h-2.637a5.06 5.06 0 00-1.794.328 4.745 4.745 0 00-1.522.935l-5.212 4.79h2.775a4.211 4.211 0 002.806-1.047l5.584-5.006zm7.196 0h-2.637c-.615 0-1.225.112-1.794.328a4.727 4.727 0 00-1.521.935l-5.212 4.79h2.774a4.218 4.218 0 002.807-1.047l5.583-5.006z" fill="#fff"/></g><path d="M258.608 61.373V60.28l-.827.715-11.004 9.513-1.016.878h12.847V61.374z" fill="#fff" stroke="#fff"/><ellipse cx="186.577" cy="2.999" rx="2.501" ry="2.162" fill="#fff"/><path d="M156.564 70.887h81.034l21.009-18.161V2.999h-70.529" stroke="#fff"/><defs><clipPath id="clip0_525_1618"><path fill="#fff" transform="translate(0 67.427)" d="M0 0h155.065v6.054H0z"/></clipPath></defs></svg>
